X: 903
T: Gözedir Yümn ile
C: Muallim İsmail Hakkı Bey
O: Turkey
F: http://compmusic.upf.edu/node/140
N: kurdilihicazkar--sarki--musemmen--gozedir_yumnile--muallim_ismail_hakki_bey
N: makam= kurdilihicazkar
N: form= sarki
N: usul= musemmen = 8/8
M: 8/8
L: 1/16
K: C _B _e _A 
Q: 1/4=126
%%MIDI tuningsystem comma53
g4 g2g4g=a g2f_2/4e  | =a2g2 f2f_2/4e eddc c_2/4Bc2  | \
w:  Gö ze dir  yümn_  |  i *  le  teş *  *  *  rî  | 
f2_2/4e2 d2ef efga gagf  | 
w:  fi *  ni  her  *  *  *  dî  | 
ga_2/4b2 aggf g=agf _2/4edc2  | g4 g2g4g=a g2f_2/4e  | 
w:  de  *  *  se *  nin   SAZ  |  Gö ze dir  yümn_  | 
=a2g2 f2f_2/4e eddc c_2/4Bc2  | f2_2/4e2 d2ef efga gagf  | 
w:  i *  le  teş *  *  *  rî  |  fi *  ni  her  *  *  *  dî  | 
ga_2/4b2 agg4cd _2/4efg2  | b4 b=aa/g/a/b/ agg4z2  | 
w:  de  *  *  se *  nin   SAZ  |  A  gü *  zel  *  *  *  *  *  fasl_  | 
g=ag2 f2f3/2e/ dfe4z2  | cdc2 d_2/4ef2 ed=a2 g2f2  | 
w:  ı  *  *  ba har  *  *  *  ir  |  de  *  *  te *  gan *  *  nî  | 
f3_3/4e edd4cd _2/4efg2  | g2f2 e2d3/2c/ d_2/4ef4z2  | \
w:  de  *  se *  nin   SAZ  |  A  *  gü zel  *  *  *  fasl_  | 
gfe2 d2d3/2c/ Bdc4z2  | 
w:  ı  *  *  ba har  *  *  *  ir  | 
c4 B2c2 g2gf edc2  | B3A AGG4d4z2  | \
w:  de  te gan *  nî  |  de  *  se *  nin   SAZ  | 
c4 d2d4f6  | _2/4ede2 f2fe edd4z2  | 
w:  Ö tü şün  bül  |  bül_ *  *  i  pür  *  *  *  zâ  | 
f2_2/4e2 d2e2 f2gf _edc2  | ded2 e2dc c_2/4Bc4z2  | \
w:  re  *  gü lün  *  gon  |  ca  *  *  i  dert    | 
c4 d2d4f6  | 
w:  Ö tü şün  bül  | 
_2/4ede2 f2fe edd4z2  | f2_2/4e2 d2ef efga gagf  | 
w:  bül_ *  *  i  pür  *  *  *  zâ  |  re  *  gü lün  *  *  *  gon  | 
ga_2/4b2 agg4cd _2/4efg2  | b4 b=aa/g/a/b/ agg4z2  | 
w:  ca  *  *  i  *  dert   SAZ  |  A  gü *  zel  *  *  *  *  *  fasl_  | 
g=ag2 f2f3/2e/ dfe4z2  | cdc2 d_2/4ef2 ed=a2 g2f2  | 
w:  ı  *  *  ba har  *  *  *  ir  |  de  *  *  te *  gan *  *  nî  | 
f3_3/4e edd4cd _2/4efg2  | g2f2 e2d3/2c/ d_2/4ef4z2  | \
w:  de  *  se *  nin   SAZ  |  A  *  gü zel  *  *  *  fasl_  | 
gfe2 d2d3/2c/ Bdc4z2  | 
w:  ı  *  *  ba har  *  *  *  ir  | 
c4 B2c2 g2gf edc2  | B3A AGG4.g2 .g2.g2  | \
w:  de  te gan *  nî  |  de  *  se *  nin    | 
g3/2^f/ga g4 z2G2 G2G2  | 
w:  ARANAĞME  | 
_7/8AGA_1/4B G4 z2b2 =a2g2  | ^f2(3_7/8ede gfed c2G2 G2G2  | 
w:   |   | 
_7/8A2_1/4B2 c4 z2d_2/4e d2e2  | f2_2/4ef g4 z2d_7/8e d2e2  | \
w:   |   | 
d2cd _1/4B4 z2d_2/4e f2e2  | 
w:   | 
d2cd _1/4B4 _7/8AGcd c2B2  | _1/4B_7/8AAG G4 z2.g2 .g2.g2  | \
w:   |   | 
g3/2^f/ga g4 z2G2 G2G2  | 
w:  ARANAĞME  | 
_7/8AGA_1/4B G4 z2b2 =a2g2  | ^f2(3_7/8ede gfed c2G2 G2G2  | 
w:   |   | 
_7/8A2_1/4B2 c4 z2d_2/4e d2e2  | f2_2/4ef g4 z2d_7/8e d2e2  | \
w:   |   | 
d2cd _1/4B4 z2d_2/4e f2e2  | 
w:   | 
d2cd _1/4B4 _7/8AGcd c2B2  | _1/4B_7/8AAG G4 z2|
w:   |   | 


